X:58
T:Crowley's No. 1
Z: id:dc-reel-52
M:C
L:1/8
K:D Major
B|A3d B2dB|ADFD ADFD|A3d B3c|dfeg fdd:|!
e|f3a g2fg|eAcA eAcA|f3a g2fg|afge fdd:|!

